X:36
T:GB/7d/36 Scarbro' Town 
%%VWML:GB-7d-36-0
F:http://www.vwml.org/record/GB/7d/36
C:Transcribed by Simon Furey and Lewis Jones
L:1/4
M:4/4
I:linebreak $
K:C
G | c B c A | G2 C F | G2 D F/E/ | C3 G | c d e c |$ d2 G d | B G A A | G3 G | G c c d |
e c !fermata!A G | A d c/B/ c |$ F2 !fermata!E E/D/ | C A A B | c c F A | G3/2 F/ D F/E/ | C3 ||

